public/assets/education.svg

<svg xmlns="http://www.w3.org/2000/svg" xmlns:xlink="http://www.w3.org/1999/xlink" width="1090" height="823" fill="none" xmlns:v="https://vecta.io/nano"><g clip-path="url(#A)"><path d="M933.737 445.567c0 126.51-74.17 238.43-187.87 306.56-72.9 43.69-162.06 69.38-258.33 69.38-128.25 0-226.08-48.47-299.67-122.72-67.83-68.42-115.06-158.75-146.53-253.22-140.49-421.79 94.2-536.86 446.2-375.94 224.12 102.47 446.2 168.32 446.2 375.94z" fill="#184e77"/><path d="M745.867 224.757v528.37c-72.9 43.69-162.06 69.38-258.33 69.38-128.25 0-226.08-48.47-299.67-122.72v-475.03h558z" fill="#f2f2f2"/><g fill="#e7a113"><use xlink:href="#B"/><path d="M241.537 558.208a349.13 349.13 0 0 1 90.156-16.073c15.347-.653 30.722-.051 45.971 1.799a287.52 287.52 0 0 1 44.616 9.552c14.42 4.175 28.642 8.998 43.014 13.333 14.6 4.459 29.442 8.081 44.455 10.848a376.7 376.7 0 0 0 45.17 5.384c15.003.872 30.153 1.042 45.114-.556a138.04 138.04 0 0 0 40.59-10.289c12.057-5.262 23.2-12.409 33.011-21.174a120.72 120.72 0 0 0 7.066-6.845c1.335-1.395-.784-3.52-2.121-2.121-19.125 19.992-44.262 32.388-71.527 36.527-14.853 2.256-29.99 2.386-44.974 1.805a370.04 370.04 0 0 1-45.715-4.619c-14.945-2.479-29.729-5.844-44.275-10.078-14.288-4.139-28.381-8.912-42.619-13.215-14.363-4.51-29.025-8.003-43.879-10.454-14.895-2.269-29.952-3.314-45.018-3.125-30.106.482-60.019 4.911-88.973 13.176-3.636 1.021-7.256 2.099-10.859 3.233-1.836.575-1.052 3.472.797 2.892h0zm0-145a349.13 349.13 0 0 1 90.156-16.073c15.347-.653 30.722-.051 45.971 1.799a287.52 287.52 0 0 1 44.616 9.552c14.42 4.175 28.642 8.998 43.014 13.333 14.6 4.459 29.442 8.081 44.455 10.848a376.7 376.7 0 0 0 45.17 5.384c15.003.872 30.153 1.042 45.114-.556a138.04 138.04 0 0 0 40.59-10.289c12.057-5.262 23.2-12.409 33.011-21.174a120.72 120.72 0 0 0 7.066-6.845c1.335-1.395-.784-3.52-2.121-2.121-19.125 19.992-44.262 32.388-71.527 36.527-14.853 2.256-29.99 2.386-44.974 1.805a370.04 370.04 0 0 1-45.715-4.619c-14.945-2.479-29.729-5.844-44.275-10.078-14.288-4.139-28.381-8.912-42.619-13.215-14.363-4.51-29.025-8.003-43.879-10.454-14.895-2.269-29.952-3.314-45.018-3.125-30.106.482-60.019 4.911-88.973 13.176-3.636 1.021-7.256 2.099-10.859 3.233-1.836.575-1.052 3.472.797 2.892h0zm-3.574-130.459c7.258-3.215 15.573-2.654 23.106-.79 8.122 2.01 15.771 5.507 23.767 7.924a82.27 82.27 0 0 0 43.978.834 81.05 81.05 0 0 0 23.031-9.872c1.631-1.025.127-3.621-1.514-2.59-12.69 7.924-27.358 12.106-42.319 12.065a77.64 77.64 0 0 1-22.154-3.262c-7.937-2.38-15.525-5.835-23.565-7.885-8.519-2.171-17.655-2.642-25.844.986-1.762.78-.237 3.366 1.514 2.59h0zm222.904 460.008c25.405 0 46-20.595 46-46s-20.595-46-46-46-46 20.594-46 46 20.595 46 46 46zm-248-612c13.807 0 25-11.193 25-25s-11.193-25-25-25-25 11.193-25 25 11.193 25 25 25zm219 63c9.388 0 17-7.612 17-17s-7.612-17-17-17-17 7.611-17 17 7.611 17 17 17zm-276 163c9.388 0 17-7.612 17-17s-7.612-17-17-17-17 7.611-17 17 7.611 17 17 17zM87.422 213.464h-1.875v335.245h1.875V213.464z"/><path d="M86.846 519.978c20.19 0 36.557-37.35 36.557-83.424s-16.367-83.424-36.557-83.424-36.557 37.35-36.557 83.424 16.367 83.424 36.557 83.424zm0-190.282c20.19 0 36.557-37.35 36.557-83.424s-16.367-83.425-36.557-83.425-36.557 37.351-36.557 83.425 16.367 83.424 36.557 83.424z"/><path d="M87.744 178.114l-1.796-.538c.114-.379 11.135-38.147-6.962-62.461-10.221-13.732-27.76-20.694-52.131-20.694v-1.875c24.999 0 43.046 7.219 53.64 21.457 18.657 25.075 7.365 63.724 7.249 64.111z"/><path d="M26.855 116.917c12.942 0 23.434-10.492 23.434-23.434S39.798 70.049 26.855 70.049 3.422 80.541 3.422 93.483s10.492 23.434 23.434 23.434z"/></g><path d="M770.74 624.677l-17.533 161.299h120.975l5.259-12.272 7.013 12.272h113.966s-8.771-166.558-24.55-171.818-205.13 10.519-205.13 10.519z" fill="#2f2e41"/><g fill="#ffb8b8"><path d="M874.182 270.521c33.89 0 61.363-27.474 61.363-61.364s-27.473-61.364-61.363-61.364-61.364 27.473-61.364 61.364 27.473 61.364 61.364 61.364z"/><path d="M839.117 247.728s5.259 56.104 0 59.611 84.156 1.753 84.156 1.753-12.273-50.844 0-75.39l-84.156 14.026z"/></g><path d="M870.675 295.066s45.113 7.026 48.856-7.006l23.027 31.552 1.754 315.585s-187.598 22.792-194.611-14.026 71.883-327.858 71.883-327.858l19.862-1.286 29.229 3.039z" fill="#e7a113"/><g fill="#3f3d56"><path d="M841.148 277.629l-30.083 10.424-85.91 21.039 3.507 210.39s-73.637 210.39-40.325 226.17 80.65-21.039 94.676-47.338 63.117-390.975 63.117-397.988-4.982-22.697-4.982-22.697zm77.256 0l11.882 10.424 84.154 38.572-42.076 212.143s56.106 192.858 35.066 203.377-52.599 40.325-59.612 22.792-48.31-467.927-29.414-487.308z"/></g><g fill="#ffb8b8"><path d="M967.104 558.054s-78.896-33.312-80.65-3.507 89.416 50.845 89.416 42.078-8.766-38.571-8.766-38.571zm-192.858-12.273s91.169 68.377 56.104 85.909-80.649-61.364-80.649-61.364l24.545-24.545z"/></g><path d="M901.425 119.268a3.38 3.38 0 0 1 1.332-1.464c.581-.344 1.251-.508 1.924-.468-28.093-1.681-57.684 1.594-81.187 17.075-6.583 4.336-12.73 9.638-20.223 12.081l6.083 4.77-7.268 2.216 10.695 6.912a9.27 9.27 0 0 1-4.016 2.668 9.28 9.28 0 0 1-4.812.29c4.648 1.358 8.07 5.494 9.808 10.014s2.051 9.442 2.345 14.276c1.796-6.974 9.408-11.08 16.597-11.497s14.202 1.955 21.199 3.66c15.241 3.704 31.069 4.313 46.549 1.791-5.257 10.549-.823 23.131 3.639 34.04l8.909 21.781c4.947.498 8.443-4.421 12.169-7.712 3.397-2.999-10.125 23.377-8.032 22.41 2.72-1.255 31.422-32.943 32.766-35.621 6.132-12.214 9.811-25.837 9.258-39.493s-5.55-27.318-14.963-37.228c-6.391-6.727-15.232-7.905-21.746-13.496-2.564-2.2-2.574-3.92-6.098-5.203-1.17-.426-14.735-2.231-14.928-1.802z" fill="#2f2e41"/><g fill="#3f3d56"><path d="M737.428 314.352l-12.273-5.26-98.182 161.299s-17.532 42.078 14.026 61.364 105.195 77.143 105.195 77.143l42.078-64.87s-85.909-40.325-80.649-56.104 33.312-57.858 33.312-57.858l-3.507-115.714zm254.221 8.766l22.791 3.507s94.68 185.844 71.89 220.909c-22.8 35.065-115.72 84.156-115.72 84.156s-1.753-57.857-17.532-78.896l54.352-21.039-29.807-115.715 14.026-92.922z"/></g></g><defs><clipPath id="A"><path fill="#fff" d="M0 0h1089.87v822.507H0z"/></clipPath><path id="B" d="M241.537 482.208a349.13 349.13 0 0 1 90.156-16.073c15.347-.653 30.722-.051 45.971 1.799a287.52 287.52 0 0 1 44.616 9.552c14.42 4.175 28.642 8.998 43.014 13.333 14.6 4.459 29.442 8.081 44.455 10.848a376.7 376.7 0 0 0 45.17 5.384c15.003.872 30.153 1.042 45.114-.556a138.04 138.04 0 0 0 40.59-10.289c12.057-5.262 23.2-12.409 33.011-21.174a120.72 120.72 0 0 0 7.066-6.845c1.335-1.395-.784-3.52-2.121-2.121-19.125 19.992-44.262 32.388-71.527 36.527-14.853 2.256-29.99 2.386-44.974 1.805a370.04 370.04 0 0 1-45.715-4.619c-14.945-2.479-29.729-5.844-44.275-10.078-14.288-4.139-28.381-8.912-42.619-13.215-14.363-4.51-29.025-8.003-43.879-10.454-14.895-2.269-29.952-3.314-45.018-3.125-30.106.482-60.019 4.911-88.973 13.176-3.636 1.021-7.256 2.099-10.859 3.233-1.836.575-1.052 3.472.797 2.892h0z"/></defs></svg>

<svg width="1090" height="823" viewBox="0 0 1090 823" fill="none" xmlns="http://www.w3.org/2000/svg">
<g clip-path="url(#clip0_2_169)">
<path d="M933.737 445.567C933.737 572.077 859.567 683.997 745.867 752.127C672.967 795.817 583.807 821.507 487.537 821.507C359.287 821.507 261.457 773.037 187.867 698.787C120.037 630.367 72.8066 540.037 41.3366 445.567C-99.1534 23.7766 135.537 -91.2934 487.537 69.6266C711.657 172.097 933.737 237.947 933.737 445.567Z" fill="#184E77"/>
<path d="M745.867 224.757V753.127C672.967 796.817 583.807 822.507 487.537 822.507C359.287 822.507 261.457 774.037 187.867 699.787V224.757H745.867Z" fill="#F2F2F2"/>
<path d="M241.537 482.208C270.753 472.915 301.066 467.511 331.693 466.135C347.04 465.482 362.415 466.084 377.664 467.934C392.765 469.931 407.684 473.125 422.28 477.486C436.7 481.661 450.922 486.484 465.294 490.819C479.894 495.278 494.736 498.9 509.749 501.667C524.684 504.37 539.768 506.168 554.919 507.051C569.922 507.923 585.072 508.093 600.033 506.495C614.008 505.149 627.695 501.68 640.623 496.206C652.68 490.944 663.823 483.797 673.634 475.032C676.082 472.847 678.437 470.565 680.7 468.187C682.035 466.792 679.916 464.667 678.579 466.066C659.454 486.058 634.317 498.454 607.052 502.593C592.199 504.849 577.062 504.979 562.078 504.398C546.759 503.807 531.491 502.264 516.363 499.779C501.418 497.3 486.634 493.935 472.088 489.701C457.8 485.562 443.707 480.789 429.469 476.486C415.106 471.976 400.444 468.483 385.59 466.032C370.695 463.763 355.638 462.718 340.572 462.907C310.466 463.389 280.553 467.818 251.599 476.083C247.963 477.104 244.343 478.182 240.74 479.316C238.904 479.891 239.688 482.788 241.537 482.208H241.537Z" fill="#E7A113"/>
<path d="M241.537 558.208C270.753 548.915 301.066 543.511 331.693 542.135C347.04 541.482 362.415 542.084 377.664 543.934C392.765 545.931 407.684 549.125 422.28 553.486C436.7 557.661 450.922 562.484 465.294 566.819C479.894 571.278 494.736 574.9 509.749 577.667C524.684 580.37 539.768 582.168 554.919 583.051C569.922 583.923 585.072 584.093 600.033 582.495C614.008 581.149 627.695 577.68 640.623 572.206C652.68 566.944 663.823 559.797 673.634 551.032C676.082 548.847 678.437 546.565 680.7 544.187C682.035 542.792 679.916 540.667 678.579 542.066C659.454 562.058 634.317 574.454 607.052 578.593C592.199 580.849 577.062 580.979 562.078 580.398C546.759 579.807 531.491 578.264 516.363 575.779C501.418 573.3 486.634 569.935 472.088 565.701C457.8 561.562 443.707 556.789 429.469 552.486C415.106 547.976 400.444 544.483 385.59 542.032C370.695 539.763 355.638 538.718 340.572 538.907C310.466 539.389 280.553 543.818 251.599 552.083C247.963 553.104 244.343 554.182 240.74 555.316C238.904 555.891 239.688 558.788 241.537 558.208H241.537Z" fill="#E7A113"/>
<path d="M241.537 413.208C270.753 403.915 301.066 398.511 331.693 397.135C347.04 396.482 362.415 397.084 377.664 398.934C392.765 400.931 407.684 404.125 422.28 408.486C436.7 412.661 450.922 417.484 465.294 421.819C479.894 426.278 494.736 429.9 509.749 432.667C524.684 435.37 539.768 437.168 554.919 438.051C569.922 438.923 585.072 439.093 600.033 437.495C614.008 436.149 627.695 432.68 640.623 427.206C652.68 421.944 663.823 414.797 673.634 406.032C676.082 403.847 678.437 401.565 680.7 399.187C682.035 397.792 679.916 395.667 678.579 397.066C659.454 417.058 634.317 429.454 607.052 433.593C592.199 435.849 577.062 435.979 562.078 435.398C546.759 434.807 531.491 433.264 516.363 430.779C501.418 428.3 486.634 424.935 472.088 420.701C457.8 416.562 443.707 411.789 429.469 407.486C415.106 402.976 400.444 399.483 385.59 397.032C370.695 394.763 355.638 393.718 340.572 393.907C310.466 394.389 280.553 398.818 251.599 407.083C247.963 408.104 244.343 409.182 240.74 410.316C238.904 410.891 239.688 413.788 241.537 413.208H241.537Z" fill="#E7A113"/>
<path d="M237.963 282.749C245.221 279.534 253.536 280.095 261.069 281.959C269.191 283.969 276.84 287.466 284.836 289.883C299.148 294.147 314.35 294.436 328.814 290.717C336.956 288.64 344.726 285.31 351.845 280.845C353.476 279.82 351.972 277.224 350.331 278.255C337.641 286.179 322.973 290.361 308.012 290.32C300.508 290.309 293.046 289.21 285.858 287.058C277.921 284.678 270.333 281.223 262.293 279.173C253.774 277.002 244.638 276.531 236.449 280.159C234.687 280.939 236.212 283.525 237.963 282.749V282.749Z" fill="#E7A113"/>
<path d="M460.867 742.757C486.272 742.757 506.867 722.162 506.867 696.757C506.867 671.351 486.272 650.757 460.867 650.757C435.462 650.757 414.867 671.351 414.867 696.757C414.867 722.162 435.462 742.757 460.867 742.757Z" fill="#E7A113"/>
<path d="M212.867 130.757C226.674 130.757 237.867 119.564 237.867 105.757C237.867 91.9495 226.674 80.7566 212.867 80.7566C199.06 80.7566 187.867 91.9495 187.867 105.757C187.867 119.564 199.06 130.757 212.867 130.757Z" fill="#E7A113"/>
<path d="M431.867 193.757C441.255 193.757 448.867 186.145 448.867 176.757C448.867 167.368 441.255 159.757 431.867 159.757C422.478 159.757 414.867 167.368 414.867 176.757C414.867 186.145 422.478 193.757 431.867 193.757Z" fill="#E7A113"/>
<path d="M155.867 356.757C165.255 356.757 172.867 349.145 172.867 339.757C172.867 330.368 165.255 322.757 155.867 322.757C146.478 322.757 138.867 330.368 138.867 339.757C138.867 349.145 146.478 356.757 155.867 356.757Z" fill="#E7A113"/>
<path d="M87.4217 213.464H85.547V548.709H87.4217V213.464Z" fill="#E7A113"/>
<path d="M86.8459 519.978C107.036 519.978 123.403 482.628 123.403 436.554C123.403 390.48 107.036 353.13 86.8459 353.13C66.6562 353.13 50.2892 390.48 50.2892 436.554C50.2892 482.628 66.6562 519.978 86.8459 519.978Z" fill="#E7A113"/>
<path d="M86.8459 329.696C107.036 329.696 123.403 292.346 123.403 246.272C123.403 200.198 107.036 162.847 86.8459 162.847C66.6562 162.847 50.2892 200.198 50.2892 246.272C50.2892 292.346 66.6562 329.696 86.8459 329.696Z" fill="#E7A113"/>
<path d="M87.7439 178.114L85.9479 177.576C86.0614 177.197 97.0826 139.429 78.9859 115.115C68.7648 101.383 51.2256 94.4205 26.8553 94.4205V92.5458C51.8544 92.5458 69.9012 99.765 80.4949 114.003C99.1519 139.078 87.8602 177.727 87.7439 178.114Z" fill="#E7A113"/>
<path d="M26.8554 116.917C39.7976 116.917 50.2892 106.425 50.2892 93.4832C50.2892 80.541 39.7976 70.0494 26.8554 70.0494C13.9133 70.0494 3.42163 80.541 3.42163 93.4832C3.42163 106.425 13.9133 116.917 26.8554 116.917Z" fill="#E7A113"/>
</g>
<defs>
<clipPath id="clip0_2_169">
<rect width="1089.87" height="822.507" fill="white"/>
</clipPath>
</defs>
</svg>
